X:1
T:Title
%%score { ( 1 3 5 ) | ( 2 4 ) }
L:1/8
M:2/4
K:Db
V:1 treble nm="Grand Piano"
V:3 treble 
V:5 treble 
V:2 bass 
V:4 bass 
V:1
 z2[Q:1/4=94] [DF][EG] | [FA][FA] [_F=G][=FA] | [GB][FA] [DF]>[Fd] | c4- |[M:1/4] c2 | [CE][DF] | %6
[M:2/4] [EG][EG] [=DF][EG] | [Gc][GB] [CE]>[CGB] | A4- |[M:1/4] A2 | F[EG] | %11
[M:2/4] [FA][FA] [_F=G][=FA] | [GB][FA] [DF][FA] | [Fd][Fd] [Ec][Fd] |[M:1/4] [Ge][Fd] | %15
 [FA][F=A] |[M:2/4] BB cB | %17
 A[Ad] [CGA]>[CE][Q:1/4=91][Q:1/4=88][Q:1/4=85][Q:1/4=82][Q:1/4=79][Q:1/4=76][Q:1/4=73] | A4- | %19
[M:1/4] A2 |] %20
V:2
 z2 [D,A,][D,A,] | [D,D][D,D] [D,D][D,D] | [D,D][D,D] [D,A,]>[D,A,] | [E,A,]2 [A,C]>[A,E] | %4
[M:1/4] A,2 | [A,,A,][A,,A,] |[M:2/4] [A,,A,][A,,A,] [A,,A,][A,,A,] | [A,,A,][A,,A,] [A,,A,]>A,, | %8
 D,2 [D,B,]>[D,B,] |[M:1/4] [D,A,]2 | [D,A,D][D,A,] |[M:2/4] [D,D][D,D] [D,D][D,D] | %12
 [D,D][D,D] [D,A,][D,A,] | [D,A,][D,A,] [D,A,][D,A,] |[M:1/4] [D,A,][D,A,] | [D,D][D,D] | %16
[M:2/4] [G,DG][G,DG] [=G,D_F][G,DF] | .[A,F]2 z2 | z2 B,2 |[M:1/4] D2 |] %20
V:3
 x4 | x4 | x4 | G2 G>G |[M:1/4] G2 | x2 |[M:2/4] x4 | x4 | [DF]2 G>G |[M:1/4] F2 | x2 |[M:2/4] x4 | %12
 x4 | x4 |[M:1/4] x2 | x2 |[M:2/4] x4 | x4 | [DF]2 .G>C |[M:1/4] F2 |] %20
V:4
 x4 | x4 | x4 | x4 |[M:1/4] x2 | x2 |[M:2/4] x4 | x4 | x4 |[M:1/4] x2 | x2 |[M:2/4] x4 | x4 | x4 | %14
[M:1/4] x2 | x2 |[M:2/4] x4 | D-[F,D] E,>A, | D,4- |[M:1/4] D,2 |] %20
V:5
 x4 | x4 | x4 | x4 |[M:1/4] x2 | x2 |[M:2/4] x4 | x4 | x4 |[M:1/4] x2 | x2 |[M:2/4] x4 | x4 | x4 | %14
[M:1/4] x2 | x2 |[M:2/4] x4 | x4 | z2 z E |[M:1/4] x2 |] %20

